X: 21428
T: Kev The Great
R: reel
M: 4/4
K: Amajor
|:"A"cAAB cAAB|"A"cdef "E"gede|"A"cAAB cdea|"E"gbea gbed|
"A"cAAB cdec|"D"Aaaf "E"gbed|"A"c2 "E"d2 "A"ea"E"ge|"Bm"dBBe "E"dBB2:|
|:"A"E2 Ac "E"BEed|"A"cA"D"df "E"efed|"A"c2 ec "F#m"Aage|"Bm"deBe "E"de B2|
"A"E2 Ac "E"BEed|"A"c2 "E" d2 "A"ef"E"ed|"A"cAec "F#m"Aage|"Bm"dB"E"GB "A"A4:|

